X: 23650
T: Limerick Redowa, The
R: mazurka
M: 3/4
K: Dmajor
|:(3FGA|d2 c2 DF|B2 A2 FA|(3GAG F2 (3EFA|B2 A2 (3FGA|
d2 c2 (3DEF|B2 A2 FA|G2 (3FGF E2|D4:|
|:F>A|G2 F2 (3EFG|B2 A2 FA|G2 F2 (3EFA|(3BcB A2 FA|
d2 c2 DF|B2 A2 (3FGA|(3GAG (3FGF E2|1 D4:|2 D3 E||
|:F>G|A2 f3 e|(3ded F2 A2|G2 E2 c2|d2 f2 (3AAA|
A2 f2 e2|d2 F3 A|G2 e2 c2|1 d3 A:|2 d4||

